.local/share/icons/Gruvbox-Plus-Dark/panel/16/synapse-panel.svg

<svg xmlns="http://www.w3.org/2000/svg" width="16" height="16" version="1.1">
 <defs>
  <style id="current-color-scheme" type="text/css">
   .ColorScheme-Text { color:#ebdbb2; } .ColorScheme-Highlight { color:#458588; }
  </style>
 </defs>
 <path style="fill:currentColor" class="ColorScheme-Text" d="M 7 0 L 7 1.1894531 A 6.5 6.5 0 0 0 2.1796875 6 L 4.265625 6 A 4.5 4.5 0 0 1 8.5 3 A 4.5 4.5 0 0 1 12.732422 6 L 14.808594 6 A 6.5 6.5 0 0 0 10 1.1894531 L 10 0 L 7 0 z M 8.5 4 A 3.5 3.5 0 0 0 5 7.5 A 3.5 3.5 0 0 0 5.0410156 8 L 5.4003906 8 L 6.0546875 8 L 10.949219 8 A 2.5 2.5 0 0 1 8.5 10 A 2.5 2.5 0 0 1 6.5019531 9 L 5.3417969 9 A 3.5 3.5 0 0 0 8.5 11 A 3.5 3.5 0 0 0 12 7.5 A 3.5 3.5 0 0 0 11.958984 7 L 11.400391 7 L 10.945312 7 L 6.0507812 7 A 2.5 2.5 0 0 1 8.5 5 A 2.5 2.5 0 0 1 10.498047 6 L 11.658203 6 A 3.5 3.5 0 0 0 8.5 4 z M 2.1835938 9 A 6.5 6.5 0 0 0 7 13.814453 L 7 15 L 8 15 L 9 15 L 10 15 L 10 13.808594 A 6.5 6.5 0 0 0 14.816406 9 L 12.736328 9 A 4.5 4.5 0 0 1 8.5 12 A 4.5 4.5 0 0 1 4.2636719 9 L 2.1835938 9 z"/>
</svg>

<svg width="16" height="16" version="1.1" xmlns="http://www.w3.org/2000/svg">
  <defs>
    <style id="current-color-scheme" type="text/css">.ColorScheme-Text { color:#ebdbb2; } .ColorScheme-Highlight { color:#458588; } .ColorScheme-NeutralText { color:#fe8019; } .ColorScheme-PositiveText { color:#689d6a; } .ColorScheme-NegativeText { color:#fb4934; }</style>
  </defs>
  <path class="ColorScheme-Text" d="m7 0v1.189a6.5 6.5 0 0 0-4.82 4.811h2.086a4.5 4.5 0 0 1 4.234-3 4.5 4.5 0 0 1 4.232 3h2.076a6.5 6.5 0 0 0-4.809-4.811v-1.189h-3zm1.5 4a3.5 3.5 0 0 0-3.5 3.5 3.5 3.5 0 0 0 0.04102 0.5h0.3594 0.6543 4.895a2.5 2.5 0 0 1-2.449 2 2.5 2.5 0 0 1-1.998-1h-1.16a3.5 3.5 0 0 0 3.158 2 3.5 3.5 0 0 0 3.5-3.5 3.5 3.5 0 0 0-0.04102-0.5h-0.5586-0.4551-4.895a2.5 2.5 0 0 1 2.449-2 2.5 2.5 0 0 1 1.998 1h1.16a3.5 3.5 0 0 0-3.158-2zm-6.316 5a6.5 6.5 0 0 0 4.816 4.814v1.186h1 1 1v-1.191a6.5 6.5 0 0 0 4.816-4.809h-2.08a4.5 4.5 0 0 1-4.236 3 4.5 4.5 0 0 1-4.236-3h-2.08z" fill="currentColor"/>
</svg>
